X:1
T:Red Apple Rag
C:Arthur Smith
L:1/8
M:4/4
I:linebreak $
K:G
V:1 treble
V:1
 DC |:"G" B,CDG EFGA | Bd B G2 B AG |"C" EFGB cBcd | e_e =e c2 d cB |$
 "D7"AdBc d^cde | fa f d3 ef |  gbge dBAF |"G"  G6 Bc ::$
 |:"G"  d2 e g2 f g2 | b_b =b g2 a ge |"C" cd e g2 e g2 | ag e c2 d cB |$
 "D7"AdBc d^cde |  fa f d3 _g2 | gbge dBAF |"G"  G6 z2 :|
